X: 1
T: the Rusty Gulley
R: slip-jig, triple hornpipe
Z: 2020 John Chambers <jc:trillian.mit.edu>
S: https://www.facebook.com/groups/Fiddletuneoftheday/ 2020-08-25
S: https://www.facebook.com/groups/Fiddletuneoftheday/photos/
M: 3/2
L: 1/8
K: G
|: "G"G/A/B/c/  dG BG | "D7"FA- Ac BA | "G"G/A/B/c/ dG BG | "G"DG- "(D7)"GB "G"AG :|
|: "G"g2 "D"f2 "Em"eg | "D7"fd- df ed | "C"ce "G"Bd "D7"Ac | "G"BG- "(D7)"GB "G"AG :|
